!! 00000] TT[WS
!!!OTL: Shengli buwang gongchandang
!!!ARE: Asia, China, Shanxi Zouquan
!! Ethnic Group: Han
!! WII, 254 (2)
!!!SCT: J0782
!!!YEM: Copyright 1995, estate of Helmut Schaffrath.
**kern
*ICvox
*Ivox
*M2/4
*k[b-]
*F:
{8cc
16cc
16dd
8ff
16ee
16dd
=1
16cc
16dd
4cc
8dd
=2
8ff
16ee
16dd
16cc
16dd
16a
16g
=3
4.f
16e
16d}
=4
{16g
16a
4cc
8ff
=5
16dd
16cc
16a
16g
8f
16e
16d
=6
16cc
16cc
16b-
16a
8g
16a
16d
=7
2c}
==
!!!AGN: Xiaodiao. Laodong, Xinminge
!!!ONB: ESAC (Essen Associative Code) Database: CHINA
!!!AMT: simple duple
!!!AIN: vox
!!!EED: Helmut Schaffrath
!!!EEV: 1.0
*-
